actions/16/draw-halfcircle3.svg

<svg xmlns="http://www.w3.org/2000/svg" viewBox="0 0 16 16">
  <defs id="defs3051">
    <style type="text/css" id="current-color-scheme">
      .ColorScheme-Text {
        color:#808080;
      }
      </style>
  </defs>
 <path style="fill:currentColor;fill-opacity:1;stroke:none" 
     d="m2 9v-1c0-3.314 2.684-6 5.996-6 3.311 0 5.996 2.686 5.996 6 .019.069 0 1 0 1h-10.992zm.999-1h9.993c0-2.761-2.237-5-4.997-5-2.76 0-4.997 2.239-4.997 5"
     class="ColorScheme-Text"
     />
</svg>

<svg xmlns="http://www.w3.org/2000/svg" version="1.1" viewBox="0 0 16 16">
 <defs>
  <style id="current-color-scheme" type="text/css">
   .ColorScheme-Text { color:#808080; }
  </style>
 </defs>
 <path class="ColorScheme-Text" d="M 2,9 V 8 C 2,4.686 4.684,2 7.996,2 11.307,2 13.992,4.686 13.992,8 14.011,8.069 13.992,9 13.992,9 H 3 Z M 2.999,8 H 12.992 C 12.992,5.239 10.755,3 7.995,3 5.235,3 2.998,5.239 2.998,8" style="color:#808080;fill:currentColor"/>
</svg>
